X:1
T:Maid in the Pump-Room -- Hornpipe
R:hornpipe
B:Cole's 1000 Fiddle Tunes
M:2/4
L:1/16
K:G
((3uDEF)|vG2vDD D2B2|cBAc B3uA|GFGA G2B2|AGAB vA2((3uDEF)|
G2DD D2B2|cBAc B3A|GFGA BAGF|G2G2G2:|
|:uD2|GBdB GBdB|cBAc B3uA|.G2vGG G2B2|AGAB c2A2|
GBdB GBdB|cBAc B3uD|D2G2B2d2|dcBA G2:|
